images/twitter_icon.svg

<svg width="21" height="17" viewBox="0 0 21 17" fill="none" xmlns="http://www.w3.org/2000/svg">
<path d="M20.9184 2.01238C20.1488 2.35373 19.3216 2.58442 18.4536 2.68815C19.3395 2.15701 20.0201 1.31598 20.3405 0.31378C19.5112 0.80564 18.5928 1.16278 17.6152 1.3552C16.8324 0.52112 15.7171 0 14.4827 0C12.1126 0 10.1909 1.92147 10.1909 4.29155C10.1909 4.6279 10.2289 4.95546 10.3021 5.2696C6.73532 5.0906 3.57298 3.38203 1.45632 0.78551C1.08688 1.41935 0.87524 2.15656 0.87524 2.94309C0.87524 4.43204 1.63287 5.74563 2.78446 6.5153C2.08102 6.4929 1.41919 6.2999 0.84062 5.97846C0.84021 5.99639 0.84021 6.0143 0.84021 6.0324C0.84021 8.1118 2.31956 9.8463 4.28282 10.2406C3.92272 10.3387 3.54357 10.3912 3.15217 10.3912C2.87563 10.3912 2.60678 10.3642 2.34469 10.3142C2.89084 12.0191 4.47576 13.26 6.35377 13.2945C4.88499 14.4457 3.0345 15.1318 1.02376 15.1318C0.67735 15.1318 0.33574 15.1114 0 15.0717C1.89926 16.2894 4.15514 17 6.57873 17C14.4726 17 18.7894 10.4605 18.7894 4.78918C18.7894 4.60314 18.7852 4.41805 18.7769 4.23395C19.6155 3.62886 20.3431 2.87302 20.9184 2.01238Z" fill="white"/>
</svg>

<svg width="21" height="17" fill="none" xmlns="http://www.w3.org/2000/svg"><path d="M20.918 2.012a8.58 8.58 0 0 1-2.464.676A4.305 4.305 0 0 0 20.34.314a8.591 8.591 0 0 1-2.725 1.041 4.292 4.292 0 0 0-7.313 3.914A12.184 12.184 0 0 1 1.456.787a4.271 4.271 0 0 0-.58 2.157 4.29 4.29 0 0 0 1.908 3.572 4.276 4.276 0 0 1-1.943-.537v.054c0 2.08 1.479 3.814 3.442 4.209a4.296 4.296 0 0 1-1.938.073 4.296 4.296 0 0 0 4.009 2.98 8.61 8.61 0 0 1-5.33 1.838c-.347 0-.688-.02-1.024-.06A12.147 12.147 0 0 0 6.579 17c7.894 0 12.21-6.54 12.21-12.21 0-.187-.004-.372-.012-.556a8.719 8.719 0 0 0 2.141-2.222Z" fill="#fff"/></svg>
